X:1
T:Dixon and Johnson
M:4/4
L:1/4
K:Eb
 e g2 f| d B2 B| c3/2 c/2 f e| c2 z c| e g2 f| d B2 B| c3/2 c/2 f e|\
 c2 z c| B B B3/2 B/2| c e2 G| F E e3/2 c/2| B G F F/2F/2| G3/2 B/2G/2 F3/2|\
 E4|
